!!!COM: Scarlatti, Domenico
!!!CDT: 1685///-1757///
!!!OTL: Fuga in G Minor K.93, L.336
!!!SCT: K. 93
!!!SCT: L. 336
**kern	**dynam	**kern	**dynam
*staff2	*staff2	*staff1	*staff1
*Icemba	*Icemba	*Icemba	*Icemba
*clefF4	*clefF4	*clefG2	*clefG2
*k[b-e-]	*k[b-e-]	*k[b-e-]	*k[b-e-]
*g:	*g:	*g:	*g:
*M2/2	*M2/2	*M2/2	*M2/2
*MM160	*MM160	*MM160	*MM160
=1-	=1-	=1-	=1-
(2G\	mf	1r	.
2d\	.	.	.
=2	=2	=2	=2
4B-\	.	1r	.
4G\	.	.	.
E-q/	.	.	.
2E-\	.	.	.
=3	=3	=3	=3
(8D\L)	>	1r	.
8En\	.	.	.
8F#\	.	.	.
8G\J	.	.	.
8A\L	.	.	.
8B-\	.	.	.
8c\	.	.	.
8A\J	.	.	.
=4	=4	=4	=4
8B-\L	p	(2d/	mf
8c\	.	.	.
8B-\	.	.	.
8A\J	.	.	.
8G\L	.	2g/	.
8A\	.	.	.
8Bn\	.	.	.
8c#\J	.	.	.
=5	=5	=5	=5
8d\L	.	4f/	.
8cn\	.	.	.
8B-\	.	4d/	.
8A\J	.	.	.
.	.	B-q/	.
8G\L	.	2B-/	.
8F\	.	.	.
8En\	.	.	.
8D\J	.	.	.
=6	=6	=6	=6
4C#/	>	(8A/L)	>
.	.	8Bn/	.
4AA/)	.	8c#/	.
.	.	8d/J	.
4AA/	.	8en/L	.
.	.	8f/	.
4AA/	.	8g/	.
.	.	8e/J	.
=7	=7	=7	=7
(8D\L	p	2f/	p
8En\	.	.	.
8F\	.	.	.
8G\J	.	.	.
8A\L	.	4en/	.
8B-\	.	.	.
8c\	.	4f#/	.
8A\J	.	.	.
=8	=8	=8	=8
8B-\L	.	(2g/)	mf
8G\	.	.	.
8B-\	.	.	.
8c\J	.	.	.
8d\L	.	2dd\	.
8D\	.	.	.
8En\	.	.	.
8F#\J	.	.	.
=9	=9	=9	=9
8G\L	.	4b-\	.
8Fn\	.	.	.
8E-\	.	4g/	.
8D\J	.	.	.
.	.	e-q/	.
8C/L	.	2e-/	.
8BB-/	.	.	.
8AA/	.	.	.
8GG/J	.	.	.
=10	=10	=10	=10
4FF#/	.	(8d/L)	.
.	.	8en/	.
4DD/)	.	8f#/	.
.	.	8g/J	.
4DD/	.	8a\L	.
.	.	8b-\	.
4DD/	.	8cc\	.
.	.	8a\J	.
=11	=11	=11	=11
(8GG/L	.	(2b-\)	.
8AA/	.	.	.
8BB-/	.	.	.
8C/J	.	.	.
.	.	aq/	.
8D\L	.	2a/	.
8En\	.	.	.
8F\	.	.	.
8D\J	.	.	.
=12	=12	=12	=12
2E-\)	.	8g\L	.
.	.	8a\	.
.	.	8b-\	.
.	.	8cc\J	.
(Dq/	.	.	.
(2D\)	.	8dd\L	.
.	.	8ee-\	.
.	.	8ff\	.
.	.	8dd\J	.
=13	=13	=13	=13
8C\L	.	2cc\ 2ee-\)	.
8D\	.	.	.
8E-\	.	.	.
8F\J	.	.	.
8G\L	.	2b-\ (2gg\	f
8A\	.	.	.
8B-\	.	.	.
8c\J	.	.	.
=14	=14	=14	=14
8d\L	.	4a\ 4ff\	.
8c\	.	.	.
8B-\	.	4dd\	.
8A\J	.	.	.
.	.	b-q/	.
8G\L	.	2b-\	.
8F\	.	.	.
8En\	.	.	.
8D\J	.	.	.
=15	=15	=15	=15
*	*	*^	*
4.C#/	.	2r	8a\L	.
.	.	.	8bn\	.
.	.	.	8cc#\	.
8BBn/	.	.	8dd\J	.
4AA/)	.	4een/	8een\L)	.
.	.	.	8g\	.
4r	.	4r	8f\	.
.	.	.	8en\J	.
=16	=16	=16	=16	=16
(2D\	mf	(8dd/L	4f\	p
.	.	8a/	.	.
.	.	8dd/	4r	.
.	.	8cc/J	.	.
2G\	.	8b-/L	2r	.
.	.	8a/	.	.
.	.	8b-/	.	.
.	.	8g/J	.	.
*	*	*v	*v	*
=17	=17	=17	=17
4F\	.	8a/L	.
.	.	8g/	.
4D\	.	8f/	.
.	.	8en/J	.
BB-q/	.	.	.
2BB-/	.	8d/L	.
.	.	8e/	.
.	.	8f/	.
.	.	8g/J	.
=18	=18	=18	=18
(8AA/L)	>	4.a/	>
8BBn/	.	.	.
8C#/	.	.	.
8D/J	.	8bn\	.
8En\L	p	8cc#\L	p
8F\	.	8dd\	.
8G\	.	8een\	.
8E\J	.	8cc#\J	.
=19	=19	=19	=19
8F\L	.	4dd\)	.
8D\	.	.	.
8En\	.	(4ccn\	.
8F\J	.	.	.
2G\)	.	8b-\L	.
.	.	8cc\	.
.	.	8dd\	.
.	.	8een\J	.
=20	=20	=20	=20
(8A\L	.	4ff\)	.
8F\	.	.	.
8G\	.	(4ee-\	.
8A\J	.	.	.
(2B-\)	mf	8dd\L	.
.	.	8ee-\	.
.	.	8ff\	.
.	.	8dd\J	.
=21	=21	=21	=21
2f\	.	8cc\L	.
.	.	8b-\	.
.	.	8a\	.
.	.	8g\J	.
4d\	.	8f/L	.
.	.	8e-/	.
4B-\	.	8d/	.
.	.	8c/J	.
=22	=22	=22	=22
Gq/	.	.	.
2G\	.	8B-/L	.
.	.	8c/	.
.	.	8d/	.
.	.	8e-/J	.
Aq/LL	.	.	.
Gq/JJ	.	.	.
(8F\L)	.	2f/)	.
8G\	.	.	.
8A\	.	.	.
8B-\J	.	.	.
=23	=23	=23	=23
2c\)	.	(8e-/L	.
.	.	8f/	.
.	.	8g/	.
.	.	8a/J	.
(8d\L	f	(2b-/)	f
8B-\	.	.	.
8d\	.	.	.
8e-\J	.	.	.
=24	=24	=24	=24
8f\L	.	2ff\	.
8F\	.	.	.
8G\	.	.	.
8A\J	.	.	.
8B-\L	.	4dd\	.
8A\	.	.	.
8G\	.	4b-\	.
8F\J	.	.	.
=25	=25	=25	=25
.	.	gq/	.
8E-\L	.	2g/	.
8D\	.	.	.
8C\	.	.	.
8BB-\J	.	.	.
.	.	aq/LL	.
.	.	gq/JJ	.
4.AA/	.	(8f/L)	.
.	.	8g/	.
.	.	8a/	.
8GG/	.	8b-/J	.
=26	=26	=26	=26
8FF/)	.	8cc\L	.
(8F\L	.	8dd\	.
8G\	.	8ee-\	.
8A\J	>	8cc\J	>
8B-\L	.	2b-\ 2dd\	.
8c\	.	.	.
8d\	.	.	.
8e-\J	.	.	.
=27	=27	=27	=27
8f\L)	mf	2a\ 2cc\)	mf
(8F\	.	.	.
8A\	.	.	.
8Bn\J	.	.	.
8c\L	.	2cc\ (2ee-\	.
8d\	.	.	.
8e-\	.	.	.
8f\J	.	.	.
=28	=28	=28	=28
*	*	*^	*
4.g\	.	2r	8dd\L	.
.	.	.	8cc\	.
.	.	.	8b-\	.
8f\	.	.	8a\J	.
8e-\L	.	8g/L	4r	.
8d\	.	8f/J	.	.
8c\	.	(4g/)	8e-\L	.
8B-\J	.	.	8d\J	.
=29	=29	=29	=29	=29
2A\)	.	8a/L	8c\L	.
.	.	8b-/	8d\	.
.	.	8cc/	8en\	.
.	.	8a/J	8f#\J	.
(2G\	f	8b-/L	4g\)	.
.	.	8cc/	.	.
.	.	8dd/	4r	.
.	.	8b-/J	.	.
*	*	*v	*v	*
=30	=30	=30	=30
2d\	.	8a/L	.
.	.	8g/	.
.	.	8f#/	.
.	.	8en/J	.
4B-\	.	8d/ (8dd/L	.
.	.	8cc/	.
4G\	.	8b-/	.
.	.	8a/J	.
=31	=31	=31	=31
E-q/	.	.	.
2E-\	.	8g/L	.
.	.	8b-/	.
.	.	8a/	.
.	.	8g/J	.
Fq/LL	.	.	.
E-q/JJ	.	.	.
(8D\L)	.	8f#/L	.
8En\	.	8g/	.
8F#\	.	8a/	.
8G\J	.	8b-/J	.
=32	=32	=32	=32
*	*	*^	*
8A\L	.	2cc/)	(8c\L	.
8B-\	.	.	8d\	.
8c\	.	.	8en\	.
8d\J	.	.	8f#\J	.
2G\)	<	8b-/L	4g\)	<
.	.	8cc/	.	.
.	.	8dd/	4r	.
.	.	8een/J	.	.
=33	=33	=33	=33	=33
(8D\L	f	2ffn/	2a\	f
8En\	.	.	.	.
8F\	.	.	.	.
8G\J	.	.	.	.
4A\	>	(8een/L	2r	>
.	.	8dd/	.	.
4Bn\	.	8cc#/	.	.
.	.	8bn/J	.	.
*	*	*v	*v	*
=34	=34	=34	=34
4c#\	.	8a/L	.
.	.	8g/	.
4A\)	.	8f/	.
.	.	8en/J)	.
(8B-\L	p	(2dd\	p
8A\	.	.	.
8G\	.	.	.
8F\J	.	.	.
=35	=35	=35	=35
8En\L	.	2gg\	.
8F\	.	.	.
8G\	.	.	.
8A\J	.	.	.
8D\L	.	4ff\	.
8E\	.	.	.
8F\	.	4dd\	.
8D\J	.	.	.
=36	=36	=36	=36
.	.	b-q/	.
8G\L	.	2b-\	.
8F\	.	.	.
8En\	.	.	.
8D\J	.	.	.
4.C#/	.	8a/L	.
.	.	8bn/	.
.	.	8cc#/	.
8BBn/	.	8dd/J	.
=37	=37	=37	=37
*	*	*^	*
2AA/)	.	4een/)	8r	.
.	.	.	(8g\L	.
.	.	4r	8f\	.
.	.	.	8en\J	.
(2D\	.	2r	8f\L	.
.	.	.	8a\	.
.	.	.	8dd\	.
.	.	.	8cc\J	.
=38	=38	=38	=38	=38
2G\	.	8r	2b-\)	.
.	.	(8c#/L	.	.
.	.	8d/	.	.
.	.	8en/J	.	.
4F\	.	2r	8a/L	.
.	.	.	8g/	.
4D\	.	.	8f/	.
.	.	.	8e/J	.
*	*	*v	*v	*
=39	=39	=39	=39
BB-q/	<	.	<
2BB-/	.	8d/L	.
.	.	8en/	.
.	.	8f/	.
.	.	8g/J	.
Cq/LL	.	.	.
BB-q/JJ	.	.	.
8AA/L	.	2a/)	.
8BBn/	.	.	.
8C#/	.	.	.
8D/J	.	.	.
=40	=40	=40	=40
2En\)	.	(8g/L	.
.	.	8a/	.
.	.	8bn/	.
.	.	8cc#/J	.
(8F#\L	.	4dd\	.
8D\	.	.	.
8E\	.	4ccn\)	.
8F#\J	.	.	.
=41	=41	=41	=41
*	*	*^	*
8G\)	mf	(4gg/	8r	mf
(8GG/L	.	.	8bn\L	.
8AA/	.	4ff/	8cc\	.
8BBn/J	.	.	8dd\J	.
8C/)	.	4ee-/)	4cc\	.
(8c\L	.	.	.	.
8d\	.	(4dd/	4b-\	.
8e-\J	.	.	.	.
=42	=42	=42	=42	=42
8f\)	.	4ff/	8r	.
(8F\L	.	.	8a\L	.
8G\	.	4ee-/	8b-\	.
8A\J	.	.	8cc\J	.
2B-\	.	8dd/L	8dd\	.
.	.	8ee-/	8r	.
.	.	8ff/	4r	.
.	.	8gg/J	.	.
=43	=43	=43	=43	=43
2A-\	.	8cc/L	2r	.
.	.	8dd/	.	.
.	.	8ee-/	.	.
.	.	8ff/J	.	.
8G\)	.	4gg/)	8r	.
(8GG/L	.	.	(8bn\L	.
8AAn/	.	4ff/	8cc\	.
8BBn/J	.	.	8dd\J	.
=44	=44	=44	=44	=44
2C/	.	8ee-/L	4g\)	.
.	.	8dd/	.	.
.	.	8cc/	4r	.
.	.	8ee-/J	.	.
2G\	.	8dd/L	2r	.
.	.	8cc/	.	.
.	.	8bn/	.	.
.	.	8a/J	.	.
=45	=45	=45	=45	=45
4E-\	.	4g/	(8gg\L	.
.	.	.	8ff\	.
4C/	.	4r	8ee-\	.
.	.	.	8dd\J	.
AA-q/	.	.	.	.
2AA-/	.	2r	8cc\L	.
.	.	.	8ee-\	.
.	.	.	8dd\	.
.	.	.	8cc\J	.
*	*	*v	*v	*
=46	=46	=46	=46
(8GG/L)	.	(8bn\L)	.
8AAn/	.	8cc\J	.
8BBn/	.	[4dd\	.
8C/J	.	.	.
8D\L	.	8dd\L]	.
8E-\	.	8cc\	.
8F\	.	8b\	.
8D\J	.	8dd\J	.
=47	=47	=47	=47
8E-\L	.	(2cc\)	.
8C\	.	.	.
8E-\	.	.	.
8F\J	.	.	.
8G/L	.	2gg\	.
8GG/	.	.	.
8AA/	.	.	.
8BBn/J	.	.	.
=48	=48	=48	=48
8C\L	.	4ee-\	.
8D\	.	.	.
8E-\	.	4cc\	.
8C\J	.	.	.
.	.	aq/	.
8F\L	.	2a/	.
8G\	.	.	.
8F\	.	.	.
8E-\J)	.	.	.
=49	=49	=49	=49
8D\L	.	(2b-\)	.
8BB-\	.	.	.
8D\	.	.	.
8E-\J	.	.	.
8F/L	.	2ff\	.
8FF/	.	.	.
8GG/	.	.	.
8AA/J	.	.	.
=50	=50	=50	=50
8BB-\L	.	4ee-\	.
8C\	.	.	.
8D\	.	4cc\	.
8BB-\J	.	.	.
.	.	gq/	.
8E-\L	.	2g/	.
8F\	.	.	.
8E-\	.	.	.
8D\J	.	.	.
=51	=51	=51	=51
8C\L	.	(8a/L)	.
8D\	.	8b-/	.
8En\	.	8cc/	.
8F#\J	.	8a/J	.
8G\L	.	8b-/L	.
8A\	.	8cc/	.
8B-\	.	8dd/	.
8c\J	.	8g/J	.
=52	=52	=52	=52
(2d\	.	8f#/L	.
.	.	8a/	.
.	.	8dd/	.
.	.	8cc/J	.
2g\	.	8b-/L	.
.	.	8dd/	.
.	.	8b-/	.
.	.	8g/J	.
=53	=53	=53	=53
*	*	*^	*
4f\	.	4a/)	(8aa\L	.
.	.	.	8gg\	.
4d\	.	4r	8ff\	.
.	.	.	8een\J	.
B-q/	.	.	.	.
2B-\	.	2r	8dd\L	.
.	.	.	8ff\	.
.	.	.	8ee\	.
.	.	.	8dd\J	.
*	*	*v	*v	*
=54	=54	=54	=54
(8A\L)	<	8cc#\L	<
8Bn\	.	8dd\J	.
8c#\	.	[4een\	.
8d\J	.	.	.
8en\L	.	8ee\L]	.
8f\	.	8dd\	.
8g\	.	8cc#\	.
8e\J	.	8ee\J	.
=55	=55	=55	=55
*	*	*^	*
8f\L	.	8dd/L	4r	.
8en\	.	8een/J	.	.
8d\	.	2ff/	8ff\L	.
8c\J	.	.	8ee\	.
8B-\L	.	.	8dd\	.
8A\	.	.	8cc\J	.
8G\	.	4gg/	4b-\	.
8c\J	.	.	.	.
=56	=56	=56	=56	=56
8F\L	.	4aa'/)	4cc'\	.
8G\	.	.	.	.
8A\	.	4r	4ff\ (4aa\	.
8B-\J	.	.	.	.
8c\L	.	2r	2een\ 2gg\)	.
8d\	.	.	.	.
8en\	.	.	.	.
8f#\J	.	.	.	.
*	*	*v	*v	*
=57	=57	=57	=57
8g\)	f	2gg\ (2bb-\	f
(8G\L	.	.	.
8B-\	.	.	.
8c\J	.	.	.
4.d\	>	8ff\ 8aa\L	>
.	.	8gg\	.
.	.	8ffn\	.
8c\	.	8een\J	.
=58	=58	=58	=58
*	*	*^	*
8B-\L	mf	2.dd/)	8dd\L	mf
8A\	.	.	8cc\	.
8G\	.	.	8b-\	.
8F\J	.	.	8a\J	.
4En\	.	.	8g\L	.
.	.	.	8f\	.
4A\	.	(4cc#/	8en\	.
.	.	.	8g\J	.
=59	=59	=59	=59	=59
4D\)	.	4dd/	8f#\L	.
.	.	.	8g\J	.
(8d\L	.	4a/)	4a\	.
8c\J	.	.	.	.
8B-\L	.	(8dd/L	2r	.
8A\	.	8cc/	.	.
8G\	.	8b-/	.	.
8Fn\J	.	8a/J	.	.
=60	=60	=60	=60	=60
8E-\L	.	(4g/)	8gg\L	.
8D\	.	.	8ff\	.
8C\	.	4r	8ee-\	.
8BB-\J	.	.	8dd\J	.
4AA'/)	.	4r	8cc\L	.
.	.	.	8b-\	.
4A'\	.	[4cc^/	8a\	.
.	.	.	8g\J	.
=61	=61	=61	=61	=61
(8d\L	.	4cc/]	8f#\L	.
8c\	.	.	8en\J	.
8B-\	.	8dd/L	4d\)	.
8A\J	.	8cc/	.	.
8G\L	.	8b-/	4r	.
8F\	.	8a/J	.	.
8E-\	.	(4g/	8g\L	.
8D\J	.	.	8fn\J	.
=62	=62	=62	=62	=62
8C/L	.	4g/	8e-\L	.
8BB-/	.	.	8d\J	.
8AA/	.	4a/	4c\	.
8D/J	.	.	.	.
(2GG/)	.	8b-/L	4d\)	.
.	.	8cc/	.	.
.	.	8dd/	4r	.
.	.	8b-/J	.	.
*	*	*v	*v	*
=63	=63	=63	=63
2D\	.	8a/L	.
.	.	8g/	.
.	.	8f#/	.
.	.	8en/J	.
4BB-/	.	8d/L	.
.	.	8c/	.
4GG/	.	8B-/	.
.	.	8A/J	.
=64	=64	=64	=64
EE-q/	.	.	.
2EE-/	.	8G/L	.
.	.	8A/	.
.	.	8B-/	.
.	.	8c/J	.
FFq/LL	.	.	.
DDq/JJ	.	.	.
8DD/L)	.	4d'/	.
(8EEn/	.	.	.
8FF#/	.	(4en'/	.
8GG/J	.	.	.
=65	=65	=65	=65
8AA/L	>	8f#/L	>
8BB-/	.	8g/	.
8C/	.	8a/	.
8AA/J	.	8f#/J	.
8BB-/L	p	8g/L	p
8C/	.	8a/	.
8D/	.	8b-/	.
8En/J	.	8cc/J	.
=66	=66	=66	=66
8F#\L	<	4dd'\)	<
8G\	.	.	.
8A\	.	4cc'\	.
8F#\J	.	.	.
8G\L	.	(8bn\L	.
8A\	.	8cc\	.
8Bn\	.	8dd\	.
8c\J	.	8ee-\J	.
=67	=67	=67	=67
*	*	*^	*
8d\L	.	4ff/)	(8f\L	.
8e-\	.	.	8g\	.
8f\	.	4r	8a\	.
8g\J	.	.	8bn\J	.
2a-\	.	2r	8cc\L	.
.	.	.	8dd\	.
.	.	.	8ee-\	.
.	.	.	8ff\J	.
*	*	*v	*v	*
=68	=68	=68	=68
8g\L	.	4.gg\	.
8f\	.	.	.
8en\	.	.	.
8d\J	.	8ff\	.
8c\L	.	8een\L	.
8B-\	.	8dd-\	.
8A-\	.	8cc\	.
8G\J	.	8b-\J	.
=69	=69	=69	=69
*	*	*^	*
8F\) 8f\L	.	4.ff/	8a-\L	.
8e-\	.	.	8g\J	.
8d-\	.	.	4f\)	.
8c\J	.	8ee-/	.	.
8B-\L	.	8dd-/L	2r	.
8A-\	.	8cc/	.	.
8G\	.	8b-/	.	.
8F\J	.	8a-/J	.	.
=70	=70	=70	=70	=70
8En\L	.	8g/L	(4.cc\	.
8D\	.	8f/J	.	.
8C\	.	4en/	.	.
8E\J	.	.	8b-\)	.
8F\L	.	(4.ff/	8a-\L	.
8G\	.	.	8g\J	.
8A-\	.	.	4f\	.
8F\J	.	8ee-/	.	.
*	*	*v	*v	*
=71	=71	=71	=71
8B-\L	.	8ddn\L	.
8c\	.	8cc\	.
8d\	.	8b-\	.
8B-\J	.	8a-\J)	.
8e-\	f	2g\ 2ee-\ (2gg\	f
(8E-\L	.	.	.
8G\	.	.	.
8A-\J	.	.	.
=72	=72	=72	=72
8B-\)	.	2dd\ 2ff\)	.
(8BB-/L	.	.	.
8D/	.	.	.
8E-/J	.	.	.
8F\L	.	2ff\ (2aa-\	.
8G\	.	.	.
8A-\	.	.	.
8B-\J	.	.	.
*clefG2	*clefG2	*	*
=73	=73	=73	=73
8c/L	.	2ee-\ 2gg\)	.
8d/	.	.	.
8e-/	.	.	.
8f/J	.	.	.
8g/L	.	2gg\ (2bb-\	.
8an/	.	.	.
8b-/	.	.	.
8cc/J	.	.	.
=74	=74	=74	=74
4.dd\	>	8aa\L	>
.	.	8gg\	.
.	.	8ff#\	.
8cc\	.	8ee-\J	.
8b-/L	.	8dd\L	.
8a/	.	8cc\	.
8g/	.	8b-\	.
8f/J	.	8a\J	.
=75	=75	=75	=75
8en/L	.	8g/L	.
8d/	.	8f#/J	.
8c/	.	4.g/)	.
8B-/J	.	.	.
4A'/)	.	.	.
.	p	(8a/ 8cc/L	p
4d'/	.	8g/ 8b-/	.
.	.	8f#/) 8a/J	.
*clefF4	*clefF4	*	*
=76	=76	=76	=76
(4G'\	.	8r	.
.	.	(8g/ 8b-/L	.
4c'\	.	8fn/ 8a/	.
.	.	8en/) 8g/J	.
4F'\	.	8r	.
.	.	(8f/ 8a/L	.
4B-'\	.	8e/ 8g/	.
.	.	8d/) 8f/J	.
=77	=77	=77	=77
*	*	*^	*
4En'\	.	2r	8r	.
.	.	.	(8en/ 8g/L	.
4A'\)	.	.	8d/ 8f/	.
.	.	.	8c#/) 8e/J	.
(2D\	mf	(8f/L	4.d\	mf
.	.	8a/J	.	.
.	.	[4dd/)	.	.
.	.	.	(8a\	.
=78	=78	=78	=78	=78
2G\	.	8dd/L]	2b-\)	.
.	.	(8cc#/	.	.
.	.	8dd/	.	.
.	.	8een/J	.	.
8F\L	.	4a'/)	2r	.
8En\	.	.	.	.
8D\	.	4aa'\	.	.
8C\J	.	.	.	.
=79	=79	=79	=79	=79
BB-q/	.	.	.	.
2BB-/	.	(8gg/L	8b-\L	.
.	.	8ff/	8a\	.
.	.	8een/	8g\	.
.	.	8dd/J	8f\J	.
Cq/LL	.	.	.	.
BB-q/JJ	.	.	.	.
(8AA/L)	.	8cc#/L	4en\)	.
8BBn/	.	8dd/	.	.
8C#/	.	8ee/	4r	.
8D/J	.	8ff/J	.	.
=80	=80	=80	=80	=80
8En\L	.	2gg/	(8g\L	.
8F\	.	.	8a\	.
8G\	.	.	8bn\	.
8E\J	.	.	8cc#\J	.
4.F\	.	8ff/L	4dd\)	.
.	.	8een/	.	.
.	.	8dd/	4r	.
8G\	.	16ccn/L	.	.
.	.	16b-/JJ	.	.
=81	=81	=81	=81	=81
8A\L	.	4a'/	2r	.
8Bn\	.	.	.	.
8c#\	.	4g'/	.	.
8A\J	.	.	.	.
8d\L	.	(2dd/	8f#\L	.
8en\	.	.	8g\	.
8f#\	.	.	8a\	.
8g\J	.	.	8b-\J	.
*clefG2	*clefG2	*	*	*
=82	=82	=82	=82	=82
*^	*	*	*	*
8a/L	2c\	.	2ee-/	8cc\L	.
8g/	.	.	.	8b-\	.
8a/	.	.	.	8cc\	.
8f#/J	.	.	.	8a\J	.
4g'/)	4B-'\	.	4dd'/)	8b-\L	.
.	.	.	.	8a\	.
4r	4e-'\	.	([4gg^/	8b-\	.
.	.	.	.	8g\J	.
*v	*v	*	*	*	*
*clefF4	*clefF4	*	*	*
=83	=83	=83	=83	=83
4A'\	.	4gg/]	8cc\L	.
.	.	.	8ee-\	.
4d'\	.	4ff#/	8dd\	.
.	.	.	8cc\J	.
(2G\	.	8gg/L	8b-\L	.
.	.	8ffn/	8a\	.
.	.	8ee-/	8g\	.
.	.	8dd/J	8f\J	.
*	*	*v	*v	*
=84	=84	=84	=84
2C/	.	8e-/ 8cc/L	.
.	.	8d/ 8b-/	.
.	.	8c/ 8a/	.
.	.	8B-/ 8g/J	.
8D/L	.	4A/ 4f#/	.
8C/	.	.	.
8BB-/	.	8B-/ 8g/L	.
8AA/J	.	8c/ 8a/J	.
=85	=85	=85	=85
8GG\) 8G\L	<	4d/ 4b-/	<
8Fn\	.	.	.
8E-\	.	8e-/ 8cc/L	.
8D\J	.	8f/ 8dd/J	.
8C\ (8c\L	.	4g\ 4ee-\	.
8B-\	.	.	.
8A\	.	8a\ 8ff\L	.
8G\J	.	8b-\ 8gg\J	.
=86	=86	=86	=86
8F\L	.	4cc\ 4aa\)	.
8E-\	.	.	.
8D\	.	8dd\ (8bb-\L	.
8C\J	.	8cc\ 8aa\J	.
2BB-/	f	8dd\ 8bb-\L	f
.	.	8cc\ 8aa\	.
.	.	8b-\ 8gg\	.
.	.	8a\ 8ff\J	.
=87	=87	=87	=87
2E-\	.	8g/ 8ee-/L	.
.	.	8f/ 8dd/	.
.	.	8e-/ 8cc/	.
.	.	8d/ 8b-/J	.
8F\L	.	4c/ 4a/	.
8G\	.	.	.
8F\	.	8d/ 8bn/L	.
8E-\J	.	8e-/ 8cc/J	.
=88	=88	=88	=88
4D'\)	.	8f/ 8dd/)	.
.	>	4e-/ (4cc/	>
(4G\	.	.	.
.	.	8d/ 8bn/	.
8A-\L	.	4c/ 4cc/)	.
8G\	.	.	.
8F\	mf	(8dd\L	mf
8E-\J	.	8ee-\J	.
=89	=89	=89	=89
4D'\)	.	8dd'\ 8ff'\)	.
.	.	4cc\ 4ee-\	.
4G'\	.	.	.
.	.	8bn\ 8dd\	.
8C\ (8c\L	.	8cc\ 8ee-\L	.
8B-\	.	8dd\	.
8A\	.	8cc\	.
8G\J	.	8b-\J	.
=90	=90	=90	=90
*	*	*^	*
8F\) 8f\L	.	(4.ff/	8a\L	.
8e-\	.	.	8g\J	.
8d\	.	.	2f\	.
8c\J	.	8ee-/	.	.
8B-\L	.	4dd/)	.	.
8A\	.	.	.	.
8G\	.	(8en/ 8cc#/L	4r	.
8F\J	.	8f/ 8dd/J	.	.
*	*	*v	*v	*
=91	=91	=91	=91
4En'\	.	8g'/) 8een'/	.
.	.	(4f/ 4dd/	.
(4A\	.	.	.
.	.	8en/ 8cc#/	.
8B-\L	.	4d/) 4dd/	.
8A\	.	.	.
8G\	<	(8ee\L	<
8F\J	.	8ff\J	.
=92	=92	=92	=92
4En\)	.	8een'\ 8gg'\)	.
.	.	4dd\ (4ff\	.
(4A\	.	.	.
.	.	8cc#\ 8ee\	.
8d\L	.	4dd\ 4ff#\)	.
8cn\	.	.	.
8B-\	.	8ee\ (8gg\L	.
8A\J	.	8ff#\ 8aa\J	.
=93	=93	=93	=93
*	*	*^	*
(8G\) 8g\L	.	2r	8gg\ 8bb-\L	.
8fn\	.	.	8aa\	.
8e-\	.	.	8gg\	.
8d\J	.	.	8ffn\J	.
*clefG2	*clefG2	*	*	*
8c/) 8cc/L	f	(4.ccc/)	8ee-\L	f
8b-/	.	.	8dd\J	.
8a/	.	.	4cc\	.
8g/J	.	8bb-/	.	.
=94	=94	=94	=94	=94
8f/L	.	2r	8aa\L	.
8e-/	.	.	8gg\	.
8d/	.	.	8ff\	.
8c/J	.	.	8ee-\J	.
8B-/ 8b-/L	.	4.bb-/	8dd\L	.
(8a/	.	.	8cc\J	.
8g/	.	.	4b-\)	.
8f/J	.	8aa/	.	.
=95	=95	=95	=95	=95
8e-/L	.	2r	8gg\L	.
8d/	.	.	8ff\	.
8c/	.	.	8ee-\	.
8B-/J	.	.	8dd\J	.
8A/) 8a/L	.	(4.aa/	8cc\L	.
8g/	.	.	8b-\J	.
8f/	.	.	4a\	.
8e-/J	.	8gg/	.	.
*clefF4	*clefF4	*	*	*
=96	=96	=96	=96	=96
8d\L	.	2r	8ff#\L	.
8c\	.	.	8ee-\	.
8B-\	.	.	8dd\	.
8A\J	.	.	8cc\J	.
8G\L	.	(4.gg/)	8b-\L	.
8F\	.	.	8a\J	.
8E-\	.	.	4g\	.
8D\J	.	8ffn/	.	.
=97	=97	=97	=97	=97
2C/	.	8ee-/L	8cc\L	.
.	.	8dd/	8b-\	.
.	.	8cc/	8a\	.
.	.	8b-/J	8g\J	.
8D/L	.	4a/	8f#\L	.
8C/	.	.	8en\J	.
8BB-/	.	8dd/L	4d\	.
8AA/J	.	8cc/J	.	.
=98	=98	=98	=98	=98
(2GG/	.	8b-/L	2r	.
.	.	8a/	.	.
.	.	8g/	.	.
.	.	8b-/J	.	.
2D\	.	8a/L	4a\	.
.	.	8cc/	.	.
.	.	8b-/	8g\L	.
.	.	8a/J)	8f#\J	.
=99	=99	=99	=99	=99
2G\	.	(2gg/	8b-\L	.
.	.	.	8a\	.
.	.	.	8g\	.
.	.	.	8b-\J	.
[2d\	.	8ff#/L	8a\L	.
.	.	8aa/	8cc\	.
.	.	8gg/	8b-\	.
.	.	8ff#/J	8a\J	.
=100	=100	=100	=100	=100
8d\L]	.	2gg/)	2g\	.
8e-\	mf	.	.	mf
8d\	.	.	.	.
8c\J	.	.	.	.
8d\L	.	2r	2dd\	.
8c\	.	.	.	.
8B-\	.	.	.	.
8A\J	.	.	.	.
*	*	*v	*v	*
=101	=101	=101	=101
8G\L	.	4b-\	.
8F\	.	.	.
8E-\	.	4g/	.
8D\J	.	.	.
.	.	(e-q/	.
8C/L	>	2e-/)	>
8BB-/	.	.	.
8AA/	.	.	.
8GG'/J	.	.	.
=102	=102	=102	=102
4FF#/	p	(8d/L	p
.	.	8en/	.
4DD/)	.	8d/ 8f#/	.
.	.	8e/ 8g/J	.
4DD/	.	8f#/ 8a/L	.
.	.	8g/ 8b-/	.
4DD/	.	8a/ 8cc/	.
.	.	8f#/ 8a/J	.
=103	=103	=103	=103
4DD/	<	8g\ 8b-\L	<
.	.	8a\ 8cc\	.
4DD/	.	8b-\ 8dd\	.
.	.	8g\ 8een\J	.
4DD/	.	8a\ 8ff#\L	.
.	.	8b-\ 8gg\	.
4DD/	.	8cc\ 8aa\	.
.	.	8a\ 8ff#\J	.
=104	=104	=104	=104
4DD/	.	8b-\ 8gg\L	.
.	.	8cc\ 8aa\	.
4DD/	.	8dd\ 8bb-\	.
.	.	8een\ 8gg\J	.
4DD/	.	8ff#\ 8aa\L	.
.	.	8gg\ 8bb-\	.
4DD/	.	8aa\ 8ccc\	.
.	.	8ff#\ 8aa\J	.
=105	=105	=105	=105
4DD/	f	8gg\ 8bb-\L)	f
.	.	8ffn\ (8aa\	.
4DD/	.	8ee-\ 8gg\	.
.	>	8dd\ 8bb-\J	>
4DD/	.	8cc\ 8aa\L	.
.	.	8ee-\ 8gg\	.
4DD/	.	8dd\ 8ff#\	.
.	.	8cc\ 8aa\J	.
=106	=106	=106	=106
4DD/	.	8b-\ 8gg\L	.
.	.	8a\ 8ffn\	.
4DD/	.	8g\ 8ee-\	.
.	.	8b-\ 8dd\J	.
4DD/	.	8a\ 8cc#\L	.
.	.	8g\ 8een\	.
4DD/	.	8f\ 8dd\	.
.	.	8a\ 8ccn\J	.
=107	=107	=107	=107
4DD/	.	8g/ 8b-/L	.
.	.	8fn/ 8a/	.
4DD/	.	8e-/ 8g/	.
.	.	8d/ 8b-/J	.
4DD/	.	8c/ 8a/L	.
.	.	8e-/ 8g/	.
4DD/	.	8d/ 8f#/	.
.	.	8c/ 8a/J	.
=108	=108	=108	=108
4DD/	.	8B-/ 8g/L	.
.	.	8A/ 8fn/	.
4DD/	.	8G/ 8e-/	.
.	.	8B-/ 8d/J	.
4DD/	.	8A/ 8c#/L	.
.	.	8G/ 8en/	.
4DD/	.	8F#/ 8d/	.
.	.	8A/ 8cn/J	.
=109	=109	=109	=109
4DD/	p	8G/ 8B-/L)	p
.	<	8A/ (8c/	<
4DD/	.	8B-/ 8d/	.
.	.	8c/ 8en/J	.
4DD/	.	8d/ 8f#/L	.
.	.	8e-/ 8g/	.
4DD/	.	8d/ 8a/	.
.	.	8c/ 8f#/J	.
=110	=110	=110	=110
4DD/	.	8B-/ 8g/L	.
.	.	8c/ 8a/	.
4DD/	.	8d/ 8b-/	.
.	.	8en/ 8g/J	.
4DD/	.	8f#/ 8a/L	.
.	.	8g/ 8b-/	.
(4DD/	.	8a/ 8cc/	.
.	.	8f#/ 8a/J	.
=111	=111	=111	=111
2GG/	.	8g\ 8b-\L	.
.	.	8a\ 8cc\	.
.	.	8b-\ 8dd\	.
.	.	8g\ 8een\J	.
2D\)	.	8a\ 8ff#\L	.
.	.	8b-\ 8gg\	.
.	.	8cc\ 8aa\	.
.	.	8a\ 8ff#\J	.
=112	=112	=112	=112
*	*	*^	*
4G\	f	8gg/L	4b-\	f
.	.	8dd/J)	.	.
(4C\ 4c\	.	(4ee-/	8cc\L	.
.	.	.	8a\J	.
4D\) 4B-\	.	4dd/	8b-\L	.
.	.	.	8g\J	.
(4D\ 4A\	.	4cc/	8a\L	.
.	.	.	8f#\J	.
=113	=113	=113	=113	=113
4G\	>	4.b-/	8g\L	>
.	.	.	8d\J	.
4C/	.	.	4e-\	.
.	.	8cc/	.	.
4D/	.	8b-/L	4d\	.
.	.	8g/	.	.
4DD/	.	8a/	4c\	.
.	.	8f#/J	.	.
=114	=114	=114	=114	=114
*^	*	*	*	*
4r	2GG\)	.	[1g)	8Bn\L	.
.	.	.	.	8c\J	.
(8G/L	.	.	.	[4d\	.
8F/J	.	.	.	.	.
4E-/	2GG\	.	.	8d\]	.
.	.	.	.	[4.c\	.
8D/L	.	.	.	.	.
8C/J	.	.	.	.	.
=115	=115	=115	=115	=115	=115
2D/)	2GG\	.	2g/_	8c\L]	.
.	.	.	.	(8e-\	.
.	.	.	.	8d\	.
.	.	.	.	8c\J	.
2D/	2GG\	.	8g/L]	8Bn\L	.
.	.	.	8a/	8c\	.
.	.	.	8g/	8B\	.
.	.	.	8f#/J	8A\J	.
*v	*v	*	*	*	*
*	*	*v	*v	*
=116	=116	=116	=116
1GG; 1D; 1G;	p	1Bn;) 1d; 1g;	p
==	==	==	==
*-	*-	*-	*-
!!!ENC: Craig Stuart Sapp
!!!END: 2004/10/29/
